X:1
T: Miss Bisset, Logierait
C:
R:Reel
Q: 232
K:Dm
M:4/4
L:1/8
|:A|df ec df A2|cA GF EG EC|df ec df Ac|GE cE D2 DA|
df ec df A2|cA GF EG EC|df ec df Ac|GE cE D2 DA|
FA DA FA d=B|cA GF EG EC|FA DA FA dA|GE cE D2 DA|
FA DA FA d=B|cA GF EG EC|FA DA FA df|ec fe d2 d:|
